X:1
T:Black Joke
M:6/8
L:1/8
K:G
 D| D2 F G2 G| A2 A A3/2- G/2 A| B3/2 c/2 B B3/2 A/2 G| A3/2 B/2 A A3/2 G/2 F|\
 G3 E2 D| D3/2 E/2 F G2 B| B2 d d3/2 e/2 d| e3/2- f/2 g d2 B| B2 d d3/2- e/2 d|\
 e3/2 f/2 g d2 B| c3/2 c/2 B B3/2 B/2 G| A3/2 B/2 A A2 G/2A/2| B3/2 c/2 B B3/2 A/2 G|\
 A3/2 B/2 A A2 G/2F/2| G3 E2 D| D3/2 E/2 F G2||
